icons/folder-open-msw.svg

<!--
  - The MIT License (MIT)
  -
  - Copyright (c) 2015-2024 Elior "Mallowigi" Boukhobza
  -
  - Permission is hereby granted, free of charge, to any person obtaining a copy
  - of this software and associated documentation files (the "Software"), to deal
  - in the Software without restriction, including without limitation the rights
  - to use, copy, modify, merge, publish, distribute, sublicense, and/or sell
  - copies of the Software, and to permit persons to whom the Software is
  - furnished to do so, subject to the following conditions:
  -
  - The above copyright notice and this permission notice shall be included in all
  - copies or substantial portions of the Software.
  -
  - THE SOFTWARE IS PROVIDED "AS IS", WITHOUT WARRANTY OF ANY KIND, EXPRESS OR
  - IMPLIED, INCLUDING BUT NOT LIMITED TO THE WARRANTIES OF MERCHANTABILITY,
  - FITNESS FOR A PARTICULAR PURPOSE AND NONINFRINGEMENT. IN NO EVENT SHALL THE
  - AUTHORS OR COPYRIGHT HOLDERS BE LIABLE FOR ANY CLAIM, DAMAGES OR OTHER
  - LIABILITY, WHETHER IN AN ACTION OF CONTRACT, TORT OR OTHERWISE, ARISING FROM,
  - OUT OF OR IN CONNECTION WITH THE SOFTWARE OR THE USE OR OTHER DEALINGS IN THE
  - SOFTWARE.
  -
  -->

<svg clip-rule="evenodd" fill-rule="evenodd" stroke-linejoin="round" stroke-miterlimit="1.4142" version="1.1"
     viewBox="0 0 24 24" width="16px" height="16px" xml:space="preserve" xmlns="http://www.w3.org/2000/svg">
    <path fill="#ff7043" data-folderColor="MSW"
          d="M20,18H4V8H20M20,6H12L10,4H4C2.89,4 2,4.89 2,6V18A2,2 0 0,0 4,20H20A2,2 0 0,0 22,18V8C22,6.89 21.1,6 20,6Z"/>

  <g fill="none" fill-rule="evenodd" transform="scale(0.1) translate(122 122)">
    <g transform="translate(63.000000, 60.500000) rotate(-42.000000) translate(-63.000000, -60.500000) translate(-8.000000, -21.000000)"
       stroke-width="14" stroke="#ffccbc" data-folderIconColor="MSW">
      <path
          d="M75.1396666,46.668325 C78.6024919,46.668325 81.7374919,48.0719124 84.0067856,50.341206 C86.2760793,52.6104997 87.6796666,55.7454997 87.6796666,59.208325 C87.6796666,62.3036716 86.534852,65.2896505 84.4655356,67.5916279 L84.4655356,67.5916279 L48.2320648,107.898963 C47.5120934,108.699884 46.5356444,109.133155 45.5389581,109.186204 C44.5422718,109.239252 43.5253482,108.912077 42.7244276,108.192106 L42.7244276,108.192106 L6.19781435,67.5916279 C3.88282918,65.0163603 2.8308369,61.7465599 3.00140781,58.5418302 C3.17197873,55.3371004 4.56511284,52.1974412 7.14038046,49.882456 C9.44235787,47.8131396 12.4283368,46.668325 15.5236833,46.668325 L15.5236833,46.668325 Z"
          transform="translate(45.331675, 81.500000) rotate(90.000000) translate(-45.331675, -81.500000) "/>
      <path
          d="M145.86082,46.668325 C146.937775,46.668325 147.912775,47.1048474 148.618536,47.8106086 C149.324297,48.5163698 149.76082,49.4913698 149.76082,50.568325 C149.76082,51.5309926 149.404777,52.4596464 148.76121,53.1755724 L148.76121,53.1755724 L99.5687149,107.898963 C98.8487435,108.699884 97.8722944,109.133155 96.8756081,109.186204 C95.8789218,109.239252 94.8619983,108.912077 94.0610777,108.192106 L94.0610777,108.192106 L44.5754404,53.1755724 C43.8554689,52.3746518 43.5282943,51.3577282 43.5813427,50.3610419 C43.634391,49.3643556 44.0676624,48.3879066 44.868583,47.6679352 C45.584509,47.0243679 46.5131627,46.668325 47.4758303,46.668325 L47.4758303,46.668325 Z"
          transform="translate(96.668325, 81.500000) rotate(-90.000000) translate(-96.668325, -81.500000) "/>
    </g>
  </g>
</svg>

<svg xmlns="http://www.w3.org/2000/svg" xml:space="preserve" fill-rule="evenodd" stroke-linejoin="round" stroke-miterlimit="1.414" clip-rule="evenodd" viewBox="0 0 24 24"><path fill="#ff7043" d="M20 18H4V8h16m0-2h-8l-2-2H4c-1.11 0-2 .89-2 2v12a2 2 0 0 0 2 2h16a2 2 0 0 0 2-2V8a2 2 0 0 0-2-2" data-folderColor="MSW"/><g fill="none" stroke="#ffccbc" stroke-width="1.4" data-folderIconColor="MSW"><path d="M21.176 19.852a1.25 1.25 0 0 1-.093 1.771c-.23.207-.529.322-.838.322l-5.42.005a.39.39 0 0 1-.39-.39l.572-5.431a1.25 1.25 0 0 1 1.38-1.115c.307.032.592.178.8.408Z"/><path d="M14.527 15.207a.389.389 0 0 1 .29-.65l7.358-.007a.39.39 0 0 1 .39.39l-.777 7.359a.389.389 0 0 1-.677.22Z"/></g></svg>
